public/icons/social/x.svg

<svg width="24" height="24" viewBox="0 0 24 24" fill="none" xmlns="http://www.w3.org/2000/svg">
<path d="M15.5 10V9H16.5V8H17.5V7H18.5V6H19.5V5H20.5V4H21.5V3H22.5V2H19.5V3H18.5V4H17.5V5H16.5V6H15.5V7H14.5V8H12.5V7H11.5V6H10.5V4H9.5V3H8.5V2H1.5V3H2.5V4H3.5V5H4.5V7H5.5V8H6.5V10H7.5V11H8.5V13H9.5V14H8.5V15H7.5V16H6.5V17H5.5V18H4.5V19H3.5V20H2.5V21H1.5V22H4.5V21H5.5V20H6.5V19H7.5V18H8.5V17H9.5V16H11.5V17H12.5V18H13.5V20H14.5V21H15.5V22H22.5V21H21.5V20H20.5V19H19.5V17H18.5V16H17.5V14H16.5V13H15.5V11H14.5V10H15.5ZM15.5 14V15H16.5V17H17.5V18H18.5V20H15.5V18H14.5V17H13.5V16H12.5V14H11.5V13H10.5V12H9.5V10H8.5V9H7.5V7H6.5V6H5.5V4H8.5V5H9.5V7H10.5V8H11.5V10H12.5V11H13.5V12H14.5V14H15.5Z" fill="#DC0E3E"/>
</svg>

<?xml version="1.0" encoding="UTF-8"?><svg id="X.ai_copy" xmlns="http://www.w3.org/2000/svg" viewBox="0 0 24 24"><path d="m15.5,10v-1h1v-1h1v-1h1v-1h1v-1h1v-1h1v-1h1v-1h-3v1h-1v1h-1v1h-1v1h-1v1h-1v1h-2v-1h-1v-1h-1v-2h-1v-1h-1v-1H1.5v1h1v1h1v1h1v2h1v1h1v2h1v1h1v2h1v1h-1v1h-1v1h-1v1h-1v1h-1v1h-1v1h-1v1h-1v1h3v-1h1v-1h1v-1h1v-1h1v-1h1v-1h2v1h1v1h1v2h1v1h1v1h7v-1h-1v-1h-1v-1h-1v-2h-1v-1h-1v-2h-1v-1h-1v-2h-1v-1h1Zm0,4v1h1v2h1v1h1v2h-3v-2h-1v-1h-1v-1h-1v-2h-1v-1h-1v-1h-1v-2h-1v-1h-1v-2h-1v-1h-1v-2h3v1h1v2h1v1h1v2h1v1h1v1h1v2h1Z"/></svg>
